images/Vector61.svg

<svg fill="none" height="363" viewBox="0 0 1897 363" width="1897" xmlns="http://www.w3.org/2000/svg"><path d="m31.5 47c-22.4-5.2-30.33333-28.5-31.5-39.5v355h1897v-362c0 32.8-23.33 45.3333-35 47.5-298.33 66.667-897.3 200.5-906.5 202.5s-18.5.833-22 0c-291.333-65.667-879.6-198.3-902-203.5z" fill="#fff"/></svg>

<svg width="1897" height="363" viewBox="0 0 1897 363" fill="none" xmlns="http://www.w3.org/2000/svg">
<path d="M31.5 47C9.1 41.8 1.16667 18.5 0 7.5V362.5H1897V0.5C1897 33.3 1873.67 45.8333 1862 48C1563.67 114.667 964.7 248.5 955.5 250.5C946.3 252.5 937 251.333 933.5 250.5C642.167 184.833 53.9 52.2 31.5 47Z" fill="white"/>
</svg>
